X: 42332
T: Wee Rabbit, The
R: hornpipe
M: 4/4
K: Dmajor
A>G|F>D (3DED E>F (3GFE|A>d d>c d>c B>A|F>B B>c d>c B>d|c>A A>^G A2A>=G|
(3FGA G>F (3EFG F>E|D>F A> B- B>A G>F|A>B c>d e>c B>A|A>d d>c d2:|
|:d>e|f>d (3ded f>a d'>c'|b2b>a b>a g>f|g2g>f g>f e>d|c2A>^G A2A>=G|
(3FGA G>F (3EFG F>E|D>F A> B- B>A G>F|A>B c>d e>c B>A|A>d d>c d2:|

